X: 1
T: String Quartet in E\b major opus 1 no 2 mvt 1
C: Franz Joseph Haydn
%%abc-version 2.0
%%abcx-abcm2ps-target-version 5.9.1 (29 Sep 2008)
%%abc-creator hum2abc beta
%%abcx-conversion-date 2021/02/14 14:38:30
%%abc-copyright Copyright (c) 1994, 2000 Center for Computer Assisted Research in the Humanities
%%abc-edited-by Frances Bennion
%%abcx-initial-encoding-date 1997/04/15
%%gracespace 0 6 6
%%humdrum-veritas 3948303521
%%humdrum-veritas-data 2042501551
%%linebreak <none>
%%barnumbers 0
L: 1/8
M: 3/8
N: Derived from op01n2-01.krn
Q: "Allegro molto"
%%staves [1 2 3 4]
V: 1
V: 2
V: 3 clef=alto
V: 4 clef=bass
K: Eb
[V:1][e2E2] g/f/ [I:setbarnb2] |
[V:2]G2 e/d/ |
[V:3]E2 z |
[V:4]E,2 z |
[V:1]f z2 |
[V:2]d z2 |
[V:3]B z2 |
[V:4]B, z2 |
[V:1][f2B2] a/g/ |
[V:2]d2 f/e/ |
[V:3]B,2 z |
[V:4]B,,2 z |
[V:1]g z2 |
[V:2]e z2 |
[V:3]E z2 |
[V:4]E, z2 |
[V:1]b3 |
[V:2]g3 |
[V:3]E G B |
[V:4]E, G, B, |
[V:1]b3- |
[V:2]g3- |
[V:3]e B G |
[V:4]E B, G, |
[V:1]b/c'/ b/a/ g/f/ |
[V:2]g/a/ g/f/ e/d/ |
[V:3]E z2 |
[V:4]E, z2 |
[V:1]e/d/ f/e/ g/e/ |
[V:2]e z2 |
[V:3]z3 |
[V:4]z3 |
[V:1]B2 A |
[V:2]G2 F |
[V:3]B, B, B, |
[V:4]B,, B,, B,, |
[V:1]G z2 |
[V:2]E z2 |
[V:3]B, z2 |
[V:4]E, G, B, |
[V:1]z3 |
[V:2]G,2 E/D/ |
[V:3]E2 G/F/ |
[V:4]E,2 z |
[V:1]z B B |
[V:2]D z2 |
[V:3]F z2 |
[V:4]B, z2 |
[V:1]B3- |
[V:2]D2 F/E/ |
[V:3]F2 A/G/ |
[V:4]B,,2 z |
[V:1]B B B |
[V:2]E z2 |
[V:3]G z2 |
[V:4]E, z2 |
[V:1]B3- |
[V:2]G F A |
[V:3]E B,/C/ D/B,/ |
[V:4]E, D, F, |
[V:1]B/e/ d/c/ B |
[V:2]G z2 |
[V:3]E z2 |
[V:4]E, z2 |
[V:1]B3- |
[V:2]G F A |
[V:3]E B,/C/ D/B,/ |
[V:4]E, D, F, |
[V:1]B/e/ d/c/ B |
[V:2]G z2 |
[V:3]E z2 |
[V:4]E, z2 |
[V:1]c/d/ e/c/ B |
[V:2]A2 G |
[V:3]z3 |
[V:4]z3 |
[V:1]A/B/ c/A/ G |
[V:2]F2 E |
[V:3]z3 |
[V:4]z3 |
[V:1]F/G/ A/G/ F/E/ |
[V:2]C2 C |
[V:3]A,2 =A, |
[V:4]A,,2 =A,, |
[V:1]B z2 |
[V:2]B, z2 |
[V:3]B, B/=A/ B/A/ |
[V:4]B,, B,/=A,/ B,/A,/ |
[V:1]z f ^f |
[V:2]z d d |
[V:3]B2 z |
[V:4]B,2 z |
[V:1]g3- |
[V:2]e3- |
[V:3]B, B/=A/ B/A/ |
[V:4]B,, B,/=A,/ B,/A,/ |
[V:1]g b g |
[V:2]e g e |
[V:3]B2 z |
[V:4]B,2 z |
[V:1]f3- |
[V:2]d3- |
[V:3]B, B/=A/ B/A/ |
[V:4]B,, B,/=A,/ B,/A,/ |
[V:1]f d'/b/ g/f/ |
[V:2]d z2 |
[V:3]B2 z |
[V:4]B,2 z |
[V:1]e/d/ e/d/ e |
[V:2]c3- |
[V:3]G3 |
[V:4]B,3 |
[V:1]c'/=a/ e'/c'/ a/e/ |
[V:2]c3 |
[V:3]F3 |
[V:4]=A,3 |
[V:1]d b/=a/ b/a/ |
[V:2]B z2 |
[V:3]F z2 |
[V:4]B, z2 |
[V:1]b D B |
[V:2]z D B |
[V:3]z D B |
[V:4]z D, B, |
[V:1]E g/^f/ g/f/ |
[V:2]E z2 |
[V:3]E z2 |
[V:4]E, z2 |
[V:1]g E C |
[V:2]z E C |
[V:3]z E C |
[V:4]z E, C, |
[V:1]=A, F/=A/ c/e/ |
[V:2]=A, z2 |
[V:3]=A, z F |
[V:4]=A,, z =A, |
[V:1](3d/c/B/ c2 |
[V:2]B B, =A, |
[V:3]F G F/E/ |
[V:4]B, E, F, |
[V:1]B2 z |
[V:2]B, z D/F/ |
[V:3]D z2 |
[V:4]B,,2 B, |
[V:1]z2 =a |
[V:2]E/F/ E/F/ E/F/ |
[V:3]z2 c |
[V:4]C =A, F, |
[V:1]b f z |
[V:2]D/F/ D/F/ D/F/ |
[V:3]d B z |
[V:4]B, B,, B, |
[V:1]z2 =a |
[V:2]E/F/ E/F/ E/F/ |
[V:3]z2 c |
[V:4]C =A, F, |
[V:1]b B/=A/ c/B/ |
[V:2]D2 z |
[V:3]d z2 |
[V:4]B,2 z |
[V:1]d/c/ e/d/ g/f/ |
[V:2]B/=A/ c/B/ e/d/ |
[V:3]z3 |
[V:4]z3 |
[V:1]f2 g/f/ |
[V:2]d2 e/d/ |
[V:3]B, B z |
[V:4]B,, B, z |
[V:1]e d c |
[V:2]c B =A |
[V:3]G F E |
[V:4]E, F, F,, |
[V:1]B2 z |
[V:2]B2 g/f/ |
[V:3]D z e/d/ |
[V:4]B,,2 z |
[V:1]z3 |
[V:2]f z e/d/ |
[V:3]d z c/B/ |
[V:4]z3 |
[V:1]z2 (3e'/c'/=a/ |
[V:2]d z c |
[V:3]B z F |
[V:4]z2 E, |
[V:1]b d c |
[V:2]d B =A |
[V:3]F F E |
[V:4]D, F, F,, |
[V:1]B z2 |
[V:2]B z2 |
[V:3]D z2 |
[V:4]B,,2 z |
[V:1][B2D2] d/c/ |
[V:2]D2 B/=A/ |
[V:3]B, B, B, |
[V:4]B,, B,, B,, |
[V:1]c3 |
[V:2]=A3 |
[V:3]E3 |
[V:4]B,, B,, B,, |
[V:1]d d d |
[V:2]A A A |
[V:3]F F F |
[V:4]B,, B,, B,, |
[V:1]e/d/ e z |
[V:2]G/F/ G z |
[V:3]B, B, B, |
[V:4]B,, B,, B,, |
[V:1]f2 a/g/ |
[V:2]d2 f/e/ |
[V:3]B, B, B, |
[V:4]B,, B,, B,, |
[V:1]g2 b/g/ |
[V:2]e2 g/e/ |
[V:3]B, B, B, |
[V:4]B,, B,, B,, |
[V:1]e B G/E/ |
[V:2]e B G/E/ |
[V:3]G G E |
[V:4]B,, B,, B,, |
[V:1]B z2 |
[V:2]B z2 |
[V:3]B, z2 |
[V:4]B,,2 z |
[V:1][e2E2] g/f/ |
[V:2]G2 e/d/ |
[V:3]E2 z |
[V:4]E,2 z |
[V:1]f z2 |
[V:2]d z2 |
[V:3]B z2 |
[V:4]B, z2 |
[V:1][B2f2] a/g/ |
[V:2]d2 f/e/ |
[V:3]B,2 z |
[V:4]B,,2 z |
[V:1]g z2 |
[V:2]e z2 |
[V:3]E z2 |
[V:4]E, z2 |
[V:1]b3 |
[V:2]g3 |
[V:3]E G B |
[V:4]E, G, B, |
[V:1]b3- |
[V:2]g3- |
[V:3]e B G |
[V:4]E B, G, |
[V:1]b/c'/ b/a/ g/f/ |
[V:2]g/a/ g/f/ e/d/ |
[V:3]E2 z |
[V:4]E, z2 |
[V:1]e/d/ f/e/ g/e/ |
[V:2]e z2 |
[V:3]z3 |
[V:4]z3 |
[V:1]B2 A |
[V:2]G2 F |
[V:3]B, B, B, |
[V:4]B,, B,, B,, |
[V:1]G z2 |
[V:2]E z2 |
[V:3]E E F |
[V:4]E, E, F, |
[V:1]_d'3 |
[V:2]E/B/ E/B/ E/B/ |
[V:3]G B e |
[V:4]G, G, G, |
[V:1]_d'/c'/ b/a/ g/f/ |
[V:2]c z2 |
[V:3]E z2 |
[V:4]A,2 z |
[V:1]g2 a/b/ |
[V:2]G/c/ G/c/ G/c/ |
[V:3]=E G c |
[V:4]=E, E, E, |
[V:1]b/a/ g/f/ =e/f/ |
[V:2]A z2 |
[V:3]C z2 |
[V:4]F, z2 |
[V:1]c'3 |
[V:2]D/F/ D/F/ D/F/ |
[V:3]D F F |
[V:4]A, A, A, |
[V:1]c'/b/ a/g/ f/e/ |
[V:2]E z2 |
[V:3]B, z2 |
[V:4]G, z2 |
[V:1]f2 g/a/ |
[V:2]F/B/ F/B/ F/B/ |
[V:3]D F B |
[V:4]D, D, D, |
[V:1]a/g/ f/e/ d/e/ |
[V:2]G z2 |
[V:3]B, z2 |
[V:4]E, z2 |
[V:1]E2 z |
[V:2]g/^f/ g g |
[V:3]E z2 |
[V:4]C E C |
[V:1]=B/c/ d/e/ f/g/ |
[V:2]G z2 |
[V:3]G/=A/ =B/c/ d/e/ |
[V:4]G, z2 |
[V:1]e z2 |
[V:2]g/^f/ g g |
[V:3]c z2 |
[V:4]C E C |
[V:1]=B/c/ d/e/ f/g/ |
[V:2]G z2 |
[V:3]G/=A/ =B/c/ d/e/ |
[V:4]G,2 z |
[V:1]e z2 |
[V:2]g/^f/ g g |
[V:3]E/D/ E E |
[V:4]C2 C |
[V:1]c'/b/ a/g/ f/e/ |
[V:2]a z2 |
[V:3]F z2 |
[V:4]F,2 A, |
[V:1]d z2 |
[V:2]f/e/ f f |
[V:3]D/C/ D D |
[V:4]B,2 B, |
[V:1]b/a/ g/f/ e/_d/ |
[V:2]g z2 |
[V:3]E z2 |
[V:4]E,2 G, |
[V:1]c2 c |
[V:2]c'/b/ a/g/ f/e/ |
[V:3]E2 F |
[V:4]A,2 =A, |
[V:1]B B/=A/ B/A/ |
[V:2]d B/=A/ B/A/ |
[V:3]F B/=A/ B/A/ |
[V:4]B, B,/=A,/ B,/A,/ |
[V:1]B D F |
[V:2]B D F |
[V:3]B D F |
[V:4]B, D, F, |
[V:1]B,2 z |
[V:2]B,2 z |
[V:3]B,2 z |
[V:4]B,,2 z |
[V:1]z3 |
[V:2]G,2 E/D/ |
[V:3]E2 G/F/ |
[V:4]E,2 z |
[V:1]z B B |
[V:2]D z2 |
[V:3]F z2 |
[V:4]B, z2 |
[V:1]B3- |
[V:2]D2 F/E/ |
[V:3]F2 A/G/ |
[V:4]B,,2 z |
[V:1]B B B |
[V:2]E z2 |
[V:3]G z2 |
[V:4]E, z2 |
[V:1]B3- |
[V:2]G F A |
[V:3]E B,/C/ D/B,/ |
[V:4]E, D, F, |
[V:1]B/e/ d/c/ B |
[V:2]G z2 |
[V:3]E z2 |
[V:4]E, z2 |
[V:1]B3- |
[V:2]G F A |
[V:3]E B,/C/ D/B,/ |
[V:4]E, D, F, |
[V:1]B/e/ d/c/ B |
[V:2]G z2 |
[V:3]E z2 |
[V:4]E,2 z |
[V:1]c/d/ e/c/ B |
[V:2]A2 G |
[V:3]z3 |
[V:4]z3 |
[V:1]A/B/ c/A/ G |
[V:2]F2 E |
[V:3]z3 |
[V:4]z3 |
[V:1]f/g/ a/f/ b/g/ |
[V:2]d2 e |
[V:3]B2 B |
[V:4]A,2 G, |
[V:1]f/g/ a/f/ b/g/ |
[V:2]d2 e |
[V:3]B2 B |
[V:4]A,2 G, |
[V:1]d/e/ G F |
[V:2]E E D |
[V:3]c B B, |
[V:4]C B, B,, |
[V:1]E2 z |
[V:2]E2 z |
[V:3]E E/D/ E/D/ |
[V:4]E, E,/D,/ E,/D,/ |
[V:1]z B =B |
[V:2]z G G |
[V:3]E2 z |
[V:4]E,2 z |
[V:1]c3- |
[V:2]A3- |
[V:3]E E/D/ E/D/ |
[V:4]E, E,/D,/ E,/D,/ |
[V:1]c a c' |
[V:2]A c a |
[V:3]E2 z |
[V:4]E,2 z |
[V:1]b3- |
[V:2]g3- |
[V:3]E E/D/ E/D/ |
[V:4]E, E,/D,/ E,/D,/ |
[V:1]b/g/ f/e/ d/e/ |
[V:2]g z2 |
[V:3]E z2 |
[V:4]E, z2 |
[V:1]A/G/ A/G/ A |
[V:2]F3- |
[V:3]C3 |
[V:4]E,3 |
[V:1]f/d/ a/f/ d/A/ |
[V:2]F3 |
[V:3]B,3 |
[V:4]D,3 |
[V:1]G e/d/ e/d/ |
[V:2]E z2 |
[V:3]B, z2 |
[V:4]E, z2 |
[V:1]e G, E |
[V:2]z G, E |
[V:3]z B, E |
[V:4]z B,, E, |
[V:1]A, c/=B/ c/B/ |
[V:2]A, z2 |
[V:3]A, z2 |
[V:4]A,, z2 |
[V:1]c A F |
[V:2]z A F |
[V:3]z A F |
[V:4]z A, F, |
[V:1]D B,/D/ F/A/ |
[V:2]D z D |
[V:3]D z B, |
[V:4]D, z B,, |
[V:1](3G/F/E/ F2 |
[V:2]E E D |
[V:3]E B B, |
[V:4]E, B, B,, |
[V:1]E2 z |
[V:2]E2 G/B/ |
[V:3]E2 z |
[V:4]E,2 E, |
[V:1]z2 d |
[V:2]A/B/ A/B/ A/B/ |
[V:3]z2 F |
[V:4]F, D, B,, |
[V:1]e B z |
[V:2]G/B/ G/B/ G/B/ |
[V:3]G E z |
[V:4]E,2 E, |
[V:1]z2 d |
[V:2]A/B/ A/B/ A/B/ |
[V:3]z2 F |
[V:4]F, D, B,, |
[V:1]e E/D/ F/E/ |
[V:2]G z2 |
[V:3]G z2 |
[V:4]E, z2 |
[V:1]G/F/ A/G/ c/B/ |
[V:2]E/D/ F/E/ A/G/ |
[V:3]z3 |
[V:4]z3 |
[V:1]B2 a/g/ |
[V:2]G2 c/B/ |
[V:3]E E, z |
[V:4]E, E,, z |
[V:1]f e d |
[V:2]A G F |
[V:3]A B B, |
[V:4]A, B, B,, |
[V:1]e2 z |
[V:2]G2 c/B/ |
[V:3]B,2 A/G/ |
[V:4]E,2 z |
[V:1]z3 |
[V:2]B z A/G/ |
[V:3]G z F/E/ |
[V:4]z3 |
[V:1]z2 d/B/ |
[V:2]G z F |
[V:3]E z B, |
[V:4]z2 A, |
[V:1]e G F |
[V:2]G E D |
[V:3]B, B, B,/A,/ |
[V:4]G, B, B,, |
[V:1]E2 z |
[V:2]E2 c/B/ |
[V:3]G,2 A/G/ |
[V:4]E,2 z |
[V:1]z3 |
[V:2]B z a/g/ |
[V:3]G z d/e/ |
[V:4]z3 |
[V:1]z2 b/d/ |
[V:2]g z F |
[V:3]e z B, |
[V:4]z2 A, |
[V:1]e G F |
[V:2]G E D |
[V:3]B, B, B,/A,/ |
[V:4]G, B, B,, |
[V:1]E2 z |]
[V:2]E2 z |]
[V:3]G,2 z |]
[V:4]E,2 z |]

